X:138
T:score220
L:1/8
Q:1/4=96
M:6/8
I:linebreak $
K:Bb
 B | (BF) d (dB) f | (f2 g) e z d | (dc)c (cd)B |$ (d3 c) z F | (BF) d (dB) f | (f2 g) e zd | %7
 (!fermata!d2 e) !fermata!c z z |$ cde (FG)A | B2 z z2 z |] %10
